icons/op-hide-24.svg

<svg width="24" height="24" viewBox="0 0 24 24" fill="none" xmlns="http://www.w3.org/2000/svg">
<path fill-rule="evenodd" clip-rule="evenodd" d="M6.29979 4.92894C6.05571 4.68486 5.65999 4.68486 5.41591 4.92894C5.17183 5.17302 5.17183 5.56874 5.41591 5.81282L7.69091 8.08782C6.2457 8.86707 4.95873 10.065 4 11.6815V12.3185C6.62751 16.7488 11.7205 18.0347 15.7791 16.1761L18.6742 19.0711C18.9182 19.3152 19.314 19.3152 19.558 19.0711C19.8021 18.827 19.8021 18.4313 19.558 18.1872L6.29979 4.92894ZM14.4324 14.8293L13.107 13.504C12.7959 13.7401 12.4111 13.879 12 13.879C10.9961 13.879 10.149 13.051 10.149 12C10.149 11.5949 10.2829 11.2149 10.5072 10.9041L9.18278 9.57969C8.63145 10.2291 8.29804 11.073 8.29804 12C8.29804 14.0701 9.96078 15.758 12 15.758C12.9297 15.758 13.7811 15.4072 14.4324 14.8293Z" fill="black"/>
<path d="M20 12.3185C19.3778 13.3676 18.6174 14.2403 17.7652 14.9368L15.6193 12.7909C15.6734 12.5358 15.702 12.2712 15.702 12C15.702 9.92993 14.0392 8.27388 12 8.27388C11.7224 8.27388 11.4517 8.30458 11.1913 8.36284L10.042 7.21355C13.7054 6.40459 17.7537 7.89392 20 11.6815V12.3185Z" fill="black"/>
</svg>

<svg xmlns="http://www.w3.org/2000/svg" width="24" height="24" viewBox="0 0 24 24"><path d="m6.3 4.929 13.258 13.258a.625.625 0 0 1-.884.884l-2.895-2.895C11.72 18.035 6.628 16.749 4 12.318v-.636c.959-1.617 2.246-2.815 3.691-3.594L5.416 5.813a.625.625 0 0 1 .884-.884Zm8.132 9.9-1.325-1.325a1.83 1.83 0 0 1-1.107.375 1.875 1.875 0 0 1-1.493-2.975L9.183 9.58A3.719 3.719 0 0 0 8.298 12c0 2.07 1.663 3.758 3.702 3.758.93 0 1.781-.351 2.432-.929ZM20 12.319a9.859 9.859 0 0 1-2.235 2.618l-2.146-2.146c.054-.255.083-.52.083-.791a3.71 3.71 0 0 0-4.511-3.637l-1.149-1.149c3.663-.809 7.712.68 9.958 4.467v.638Z"/></svg>
